X: 7
T: The New Custom House
R: reel
M: 4/4
L: 1/8
K: Dmix
|:AD (3FED (3EFG AB|cAGE CEGB|AD (3 FED (3EFG AB|c3^c dcAG|
AD (3FED (3EFG AB|cAGE CEGB|AD (3FED (3EFG AB|cAGE ED~D2:|
|:Ad~d2 Adfd|ed^cd efgg|Ad~d2 Adfd|eaag edd^c|
Ad~d2 Adfd|ed^cd efge|afge d2 (3Bcd|eaag ed~d2:|


Tune 175	Setting 12817

